X: 181
T: Salazu renmin bashenfan
L: 1/8
M: 2/4
K: Eb
c c c e [I:setbarnb 1]| 
c B B/ G/ B/ c/ | 
B B/ G/ F F | 
F B B/ G/ B/ c/ | 
c> c c B | 
B G B/ G/ B/ c/ | 
B B/ G/ F F | 
F2z2 | 
C C/ C/ C E | 
F F F/ E/ F/ G/ | 
G G G B | 
G G G/ F/ G/ B/ | 
F F F B | 
c B B/ G/ B/ c/ | 
B B/ G/ F F | 
F4 |]

@@@ Tune index: 8849
